lib/flags/m/HM.svg

<svg xmlns="http://www.w3.org/2000/svg" fill="none" viewBox="0 0 20 15"><mask id="HM_svg__a" width="20" height="15" x="0" y="0" mask-type="alpha" maskUnits="userSpaceOnUse"><path fill="#fff" d="M0 0H20V15H0z"/></mask><g mask="url(#HM_svg__a)"><path fill="#2E42A5" fill-rule="evenodd" d="M0 0H20V15H0V0Z" clip-rule="evenodd"/><path fill="#2E42A5" d="M0 0H11V9H0z"/><mask id="HM_svg__b" width="11" height="9" x="0" y="0" mask-type="alpha" maskUnits="userSpaceOnUse"><path fill="#fff" d="M0 0H11V9H0z"/></mask><g mask="url(#HM_svg__b)"><path fill="#F7FCFF" d="M-1.25269 8.12482L1.22291 9.21057L11.3062 1.1804L12.612 -0.43306L9.96468 -0.795949L5.85197 2.66448L2.54165 4.996L-1.25269 8.12482Z"/><path fill="#F50100" d="M-0.913757 8.88555L0.347444 9.51562L12.1431 -0.582947H10.3722L-0.913757 8.88555Z"/><path fill="#F7FCFF" d="M12.5026 8.12493L10.3055 9.52063L-0.0562172 1.1805L-1.36204 -0.432954L1.28526 -0.795844L5.39797 2.66459L8.70828 4.99611L12.5026 8.12493Z"/><path fill="#F50100" d="M12.4182 8.67082L11.157 9.3009L6.13425 4.97718L4.64512 4.4941L-1.48769 -0.427482H0.283185L6.41255 4.37728L8.04064 4.95655L12.4182 8.67082Z"/><mask id="HM_svg__c" width="13" height="11" x="-1" y="-1" fill="#000" maskUnits="userSpaceOnUse"><path fill="#fff" d="M-1-1H12V10H-1z"/><path fill-rule="evenodd" d="M6 0H5V4H0V5H5V9H6V5H11V4H6V0Z" clip-rule="evenodd"/></mask><path fill="#F50100" fill-rule="evenodd" d="M6 0H5V4H0V5H5V9H6V5H11V4H6V0Z" clip-rule="evenodd"/><path fill="#F7FCFF" d="M5 0V-0.9375H4.0625V0H5ZM6 0H6.9375V-0.9375H6V0ZM5 4V4.9375H5.9375V4H5ZM0 4V3.0625H-0.9375V4H0ZM0 5H-0.9375V5.9375H0V5ZM5 5H5.9375V4.0625H5V5ZM5 9H4.0625V9.9375H5V9ZM6 9V9.9375H6.9375V9H6ZM6 5V4.0625H5.0625V5H6ZM11 5V5.9375H11.9375V5H11ZM11 4H11.9375V3.0625H11V4ZM6 4H5.0625V4.9375H6V4ZM5 0.9375H6V-0.9375H5V0.9375ZM5.9375 4V0H4.0625V4H5.9375ZM0 4.9375H5V3.0625H0V4.9375ZM0.9375 5V4H-0.9375V5H0.9375ZM5 4.0625H0V5.9375H5V4.0625ZM5.9375 9V5H4.0625V9H5.9375ZM6 8.0625H5V9.9375H6V8.0625ZM5.0625 5V9H6.9375V5H5.0625ZM11 4.0625H6V5.9375H11V4.0625ZM10.0625 4V5H11.9375V4H10.0625ZM6 4.9375H11V3.0625H6V4.9375ZM5.0625 0V4H6.9375V0H5.0625Z" mask="url(#HM_svg__c)"/></g></g><path fill="#F7FCFF" d="M5.92003 12.2784 5.09999 13.0362 5.1812 11.9226 4.07742 11.7539 4.99872 11.1231 4.44237 10.155 5.51001 10.4819 5.92003 9.44336 6.33005 10.4819 7.39769 10.155 6.84134 11.1231 7.76264 11.7539 6.65886 11.9226 6.74007 13.0362 5.92003 12.2784zM13.24 8.29662 12.6933 8.80184 12.7474 8.05941 12.0116 7.94699 12.6258 7.52643 12.2549 6.88102 12.9666 7.09901 13.24 6.40662 13.5133 7.09901 14.2251 6.88102 13.8542 7.52643 14.4684 7.94699 13.7325 8.05941 13.7867 8.80184 13.24 8.29662zM14.52 2.96336 13.9733 3.46859 14.0275 2.72616 13.2916 2.61374 13.9058 2.19318 13.5349 1.54777 14.2467 1.76575 14.52 1.07336 14.7934 1.76575 15.5051 1.54777 15.1342 2.19318 15.7484 2.61374 15.0126 2.72616 15.0667 3.46859 14.52 2.96336zM17.72 5.62999 17.1733 6.13521 17.2275 5.39279 16.4916 5.28037 17.1058 4.8598 16.7349 4.21439 17.4467 4.43238 17.72 3.73999 17.9934 4.43238 18.7051 4.21439 18.3342 4.8598 18.9484 5.28037 18.2126 5.39279 18.2667 6.13521 17.72 5.62999zM15.16 13.2966 14.6133 13.8018 14.6675 13.0594 13.9316 12.947 14.5458 12.5264 14.1749 11.881 14.8867 12.099 15.16 11.4066 15.4334 12.099 16.1451 11.881 15.7742 12.5264 16.3884 12.947 15.6526 13.0594 15.7067 13.8018 15.16 13.2966zM17.4 9.13918 16.8446 9.4312 16.9506 8.81269 16.5013 8.37466 17.1223 8.28442 17.4 7.72168 17.6777 8.28442 18.2988 8.37466 17.8494 8.81269 17.9555 9.4312 17.4 9.13918z"/><path stroke="#979797" stroke-width="2" d="M14.8462 51.7782L16.3465 51.8029"/></svg>

<svg xmlns="http://www.w3.org/2000/svg" fill="none" viewBox="0 0 20 53"><mask id="HM_svg__a" width="20" height="15" x="0" y="0" maskUnits="userSpaceOnUse"><path fill="#fff" d="M0 0h20v15H0z"/></mask><g mask="url(#HM_svg__a)"><path fill="#2E42A5" fill-rule="evenodd" d="M0 0h20v15H0V0z" clip-rule="evenodd"/><path fill="#2E42A5" d="M0 0h11v9H0z"/><mask id="HM_svg__b" width="11" height="9" x="0" y="0" maskUnits="userSpaceOnUse"><path fill="#fff" d="M0 0h11v9H0z"/></mask><g mask="url(#HM_svg__b)"><path fill="#F7FCFF" d="M-1.253 8.125L1.223 9.21l10.083-8.03 1.306-1.614-2.647-.363-4.113 3.46-3.31 2.332-3.795 3.129z"/><path fill="#F50100" d="M-.914 8.886l1.261.63L12.143-.583h-1.77L-.915 8.886z"/><path fill="#F7FCFF" d="M12.503 8.125L10.306 9.52-.056 1.18-1.362-.434l2.647-.363 4.113 3.46 3.31 2.332 3.795 3.129z"/><path fill="#F50100" d="M12.418 8.67l-1.261.63-5.023-4.323-1.489-.483-6.133-4.921H.283l6.13 4.804 1.628.58 4.377 3.714z"/><mask id="HM_svg__c" width="13" height="11" x="-1" y="-1" fill="#000" maskUnits="userSpaceOnUse"><path fill="#fff" d="M-1-1h13v11H-1z"/><path fill-rule="evenodd" d="M6 0H5v4H0v1h5v4h1V5h5V4H6V0z" clip-rule="evenodd"/></mask><path fill="#F50100" fill-rule="evenodd" d="M6 0H5v4H0v1h5v4h1V5h5V4H6V0z" clip-rule="evenodd"/><path fill="#F7FCFF" d="M5 0v-.938h-.938V0H5zm1 0h.938v-.938H6V0zM5 4v.938h.938V4H5zM0 4v-.938h-.938V4H0zm0 1h-.938v.938H0V5zm5 0h.938v-.938H5V5zm0 4h-.938v.938H5V9zm1 0v.938h.938V9H6zm0-4v-.938h-.938V5H6zm5 0v.938h.938V5H11zm0-1h.938v-.938H11V4zM6 4h-.938v.938H6V4zM5 .937h1V-.938H5V.938zM5.938 4V0H4.063v4h1.875zM0 4.938h5V3.063H0v1.874zM.938 5V4H-.938v1H.938zM5 4.062H0v1.875h5V4.063zM5.938 9V5H4.063v4h1.875zM6 8.062H5v1.876h1V8.062zM5.062 5v4h1.875V5H5.063zM11 4.062H6v1.875h5V4.063zM10.062 4v1h1.876V4h-1.876zM6 4.938h5V3.063H6v1.874zM5.062 0v4h1.875V0H5.063z" mask="url(#HM_svg__c)"/></g></g><path fill="#F7FCFF" d="M5.92 12.278l-.82.758.081-1.114-1.104-.168.922-.631-.557-.968 1.068.327.41-1.039.41 1.039 1.068-.327-.557.968.922.63-1.104.17.081 1.113-.82-.758zm7.32-3.981l-.547.505.054-.743-.735-.112.614-.42-.371-.646.712.218.273-.692.273.692.712-.218-.37.645.613.421-.735.112.054.743-.547-.505zm1.28-5.334l-.547.506.054-.743-.735-.112.614-.42-.371-.646.712.218.273-.693.273.693.712-.218-.37.645.613.42-.735.113.054.743-.547-.506zm3.2 2.667l-.547.505.054-.742-.735-.113.614-.42-.371-.646.712.218.273-.692.273.692.712-.218-.37.646.613.42-.735.113.054.742-.547-.505zm-2.56 7.667l-.547.505.054-.742-.735-.113.614-.42-.371-.646.712.218.273-.692.273.692.712-.218-.37.646.613.42-.735.113.054.742-.547-.505zM17.4 9.14l-.555.291.106-.618-.45-.438.621-.09.278-.563.278.562.62.09-.449.439.107.618-.556-.292z"/><path stroke="#979797" stroke-width="2" d="M14.846 51.778l1.5.025"/></svg>
